X:3395
T:Polska efter Munter Johan
R:Polska
O:Mattmar, Jämtland
M:9/8
L:1/8
K:G
|: g2 f2 ed e2f | g2a bgb agf | g2 f2 ed e2f | g3 b6 |
|g2 f2 ed e2f | g2a bgb agf | g2 f2 ed e2f | gz2 G6 :|
K:Dm
|:e |faf2g/f/e2d |^cdB2d2=c2B|A2G BAGA2^F |G2ABc2 d2e
|faf2g/f/e2d |^cdB2d2=c2B|A2G BAGA2^F |Gz2 G6:|
(:musicend:)

Som jämförelse bifogas följande ur Svenska Låtar (möjlig förlaga?): 
(:music:)
